!!!OTL: Wurzgaertelein
!!!ARE: Europa, Mitteleuropa, Deutschland
!!!SCT: A0141
!!!YEM: Copyright 1995, estate of Helmut Schaffrath.
**kern
*ICvox
*Ivox
!! Mixed meters:  4/2; 2/2
*M2/2
*k[b-]
*F:
{1f
=1
*M4/2
1f
1f
=2
1g
1g
=3
1a
1a
=4
0a
=5
*M2/2
1r}
=6
{1a
=7
*M4/2
1cc
1cc
=8
1a
1g
=9
1.a
4g
4f
=10
0e}
=11
{2r
2f
2a
2b-
=12
1cc
1a
=13
2.cc
4b-
2a
2g
=14
*M2/2
2a
4g
4f
=15
1e}
=16
{1a
=17
*M4/2
1g
1f
=18
1e
1c
=19
2.f
4g
2a
4g
4f
=20
1.g
2b-
=21
2.a
4g
2f
2e
=22
0f}
==
!!!AGN: Romanze, Ballade, Lied
!! Forster V. 1556 No. 17.
!!!ONB: ESAC (Essen Associative Code) Database: ALTDEU
!!!AMT: irregular
!!!AIN: vox
!!!EED: Helmut Schaffrath
!!!EEV: 1.0
*-
